;FLAVOR:Marlin
;TIME:2824.13
;Filament used:5.34m
;Layer height:0.2
; HEADER_BLOCK_START
; generated by OrcaSlicer 2.3.2 on 2026-04-07 at 06:43:50
; total layer number: 65
; filament_density: 1.24
; filament_diameter: 1.75
; max_z_height: 13.00
; filament: 1
; HEADER_BLOCK_END

; external perimeters extrusion width = 0.42mm
; perimeters extrusion width = 0.45mm
; infill extrusion width = 0.45mm
; solid infill extrusion width = 0.42mm
; top infill extrusion width = 0.42mm
; support material extrusion width = 0.38mm
; first layer extrusion width = 0.46mm

; external perimeters extrusion width = 0.42mm
; perimeters extrusion width = 0.45mm
; infill extrusion width = 0.45mm
; solid infill extrusion width = 0.42mm
; top infill extrusion width = 0.42mm
; support material extrusion width = 0.38mm
; first layer extrusion width = 0.46mm

; EXECUTABLE_BLOCK_START
M201 X2500 Y2500 Z500 E5000
M203 X250 Y250 Z5 E40
M204 P2500 R500 T2500 ; sets acceleration (P, T) and retract acceleration (R), mm/sec^2
M205 X10.00 Y10.00 Z0.40 E5.00 ; sets the jerk limits, mm/sec
M205 J0.010
;TYPE:Custom
M220 S100 ;Reset Feedrate 
M221 S100 ;Reset Flowrate 
 
M104 S200 ;Set final nozzle temp 
M190 S55 ;Set and wait for bed temp to stabilize 
G28 ;Home 
G92 E0 ;Reset Extruder 
G1 Z2.0 F3000 ;Move Z Axis up 
G1 X-2.1 Y20 Z0.28 F5000.0 ;Move to start position 
M109 S200 ;Wait for nozzle temp to stabilize 
G1 X-2.1 Y145.0 Z0.28 F1500.0 E15 ;Draw the first line 
G1 X-2.4 Y145.0 Z0.28 F5000.0 ;Move to side a little 
G1 X-2.4 Y20 Z0.28 F1500.0 E30 ;Draw the second line 
G92 E0  ;Reset Extruder 
G1 E-1.0000 F1800 ;Retract a bit 
G1 Z2.0 F3000 ;Move Z Axis up 
G1 E0.0000 F1800
G90
G21
M83 ; use relative distances for extrusion
; filament start gcode
M900 K0.02; Override pressure advance value
M106 S0
;LAYER_CHANGE
;Z:0.2
;HEIGHT:0.2
;BEFORE_LAYER_CHANGE
;0.2
G92 E0

G1 E-1.2 F2400
;_SET_FAN_SPEED_CHANGING_LAYER
M204 P500
; printing object MagnetDisk.stl id:1142461300758 copy 0
M204 T500
G1 X127.892 Y141.936 F9000
G1 Z.6
G1 Z.2
G1 E1.2 F1800
;TYPE:Inner wall
;WIDTH:0.459999
G1 X127.885 Y141.936 E.00024
G1 X126.788 Y141.802 E.03755
G1 X125.917 Y141.668 E.02996
G1 X125.047 Y141.509 E.03005
G1 X124.182 Y141.326 E.03004
G1 X123.329 Y141.121 E.02984
G1 X121.831 Y140.7 E.05287
G1 X120.78 Y140.359 E.03755
G1 X119.951 Y140.06 E.02996
G1 X119.128 Y139.738 E.03005
G1 X118.314 Y139.393 E.03004
G1 X117.515 Y139.028 E.02983
G1 X116.126 Y138.328 E.05287
G1 X115.16 Y137.792 E.03755
G1 X114.404 Y137.34 E.02995
G1 X113.657 Y136.866 E.03005
G1 X112.925 Y136.371 E.03004
G1 X112.206 Y135.857 E.03005
G1 X111.501 Y135.323 E.03004
G1 X110.812 Y134.77 E.03004
G1 X110.138 Y134.198 E.03004
G1 X109.484 Y133.612 E.02983
G1 X108.368 Y132.528 E.05287
G1 X107.605 Y131.729 E.03756
G1 X107.017 Y131.072 E.02995
G1 X106.447 Y130.397 E.03005
G1 X105.895 Y129.707 E.03004
G1 X105.362 Y129.001 E.03004
G1 X104.849 Y128.281 E.03004
G1 X104.355 Y127.548 E.03004
G1 X103.883 Y126.801 E.03004
G1 X103.434 Y126.046 E.02983
G1 X102.691 Y124.679 E.05288
G1 X102.201 Y123.689 E.03755
G1 X101.836 Y122.887 E.02995
G1 X101.493 Y122.072 E.03004
G1 X101.172 Y121.249 E.03005
G1 X100.876 Y120.422 E.02983
G1 X100.409 Y118.938 E.05288
G1 X100.117 Y117.872 E.03756
G1 X99.913 Y117.015 E.02994
G1 X99.732 Y116.15 E.03005
G1 X99.574 Y115.28 E.03004
G1 X99.442 Y114.412 E.02983
G1 X99.268 Y112.866 E.05288
G1 X99.186 Y111.764 E.03756
G1 X99.149 Y110.884 E.02994
G1 X99.137 Y110 E.03005
G1 X99.149 Y109.116 E.03005
G1 X99.186 Y108.236 E.02994
G1 X99.268 Y107.134 E.03756
G1 X99.442 Y105.588 E.05288
G1 X99.574 Y104.72 E.02983
G1 X99.732 Y103.85 E.03004
G1 X99.913 Y102.985 E.03005
G1 X100.118 Y102.125 E.03004
G1 X100.346 Y101.271 E.03004
G1 X100.598 Y100.424 E.03005
G1 X100.874 Y99.584 E.03004
G1 X101.171 Y98.754 E.02994
G1 X101.577 Y97.727 E.03756
G1 X102.205 Y96.303 E.05288
G1 X102.59 Y95.514 E.02983
G1 X103 Y94.731 E.03005
G1 X103.431 Y93.959 E.03004
G1 X103.883 Y93.199 E.03005
G1 X104.355 Y92.452 E.03004
G1 X104.849 Y91.719 E.03004
G1 X105.362 Y90.999 E.03004
G1 X105.893 Y90.296 E.02995
G1 X106.587 Y89.436 E.03755
G1 X107.611 Y88.264 E.05288
G1 X108.214 Y87.626 E.02983
G1 X108.838 Y87.001 E.03004
G1 X109.48 Y86.393 E.03004
G1 X110.136 Y85.804 E.02995
G1 X110.982 Y85.093 E.03755
G1 X112.211 Y84.14 E.05287
G1 X112.925 Y83.629 E.02984
G1 X113.657 Y83.134 E.03004
G1 X114.404 Y82.66 E.03005
G1 X115.16 Y82.208 E.02995
G1 X116.126 Y81.672 E.03755
G1 X117.515 Y80.972 E.05287
G1 X118.314 Y80.607 E.02983
G1 X119.128 Y80.262 E.03004
G1 X119.951 Y79.94 E.03005
G1 X120.78 Y79.641 E.02996
G1 X121.831 Y79.3 E.03755
G1 X123.329 Y78.879 E.05287
G1 X124.182 Y78.674 E.02984
G1 X125.047 Y78.491 E.03004
G1 X125.917 Y78.332 E.03005
G1 X126.79 Y78.197 E.03004
G1 X127.667 Y78.086 E.03005
G1 X128.547 Y78 E.03004
G1 X129.429 Y77.938 E.03005
G1 X130.31 Y77.9 E.02996
G1 X131.414 Y77.888 E.03755
G1 X132.969 Y77.932 E.05286
G1 X133.845 Y77.991 E.02984
G1 X134.725 Y78.074 E.03004
G1 X135.603 Y78.182 E.03004
G1 X136.477 Y78.314 E.03004
G1 X137.347 Y78.47 E.03004
G1 X138.212 Y78.649 E.03005
G1 X139.073 Y78.853 E.03004
G1 X139.925 Y79.079 E.02997
G1 X140.983 Y79.397 E.03754
G1 X142.453 Y79.903 E.05286
G1 X143.272 Y80.221 E.02985
G1 X144.087 Y80.563 E.03005
G1 X144.893 Y80.927 E.03004
G1 X145.686 Y81.313 E.02997
G1 X146.663 Y81.827 E.03754
G1 X148.01 Y82.605 E.05286
G1 X148.753 Y83.074 E.02985
G1 X149.487 Y83.566 E.03004
G1 X150.208 Y84.078 E.03004
G1 X150.912 Y84.608 E.02997
G1 X151.773 Y85.3 E.03754
G1 X152.946 Y86.322 E.05286
G1 X153.585 Y86.924 E.02985
G1 X154.212 Y87.547 E.03004
G1 X154.821 Y88.188 E.03005
G1 X155.411 Y88.843 E.02997
G1 X156.124 Y89.687 E.03754
G1 X157.079 Y90.914 E.05286
G1 X157.591 Y91.628 E.02985
G1 X158.087 Y92.36 E.03004
G1 X158.562 Y93.105 E.03004
G1 X159.016 Y93.861 E.02997
G1 X159.554 Y94.826 E.03754
G1 X160.255 Y96.213 E.05285
G1 X160.622 Y97.012 E.02985
G1 X160.968 Y97.825 E.03005
G1 X161.292 Y98.647 E.03004
G1 X161.592 Y99.477 E.02998
G1 X161.936 Y100.526 E.03754
G1 X162.359 Y102.023 E.05285
G1 X162.565 Y102.876 E.02985
G1 X162.75 Y103.741 E.03004
G1 X162.91 Y104.611 E.03005
G1 X163.046 Y105.484 E.03004
G1 X163.158 Y106.361 E.03005
G1 X163.246 Y107.24 E.03004
G1 X163.31 Y108.122 E.03004
G1 X163.35 Y109.003 E.02998
G1 X163.361 Y110.341 E.04546
G1 X163.311 Y111.872 E.05209
G1 X163.182 Y113.422 E.05285
G1 X163.046 Y114.518 E.03754
G1 X162.91 Y115.389 E.02997
G1 X162.75 Y116.259 E.03005
G1 X162.565 Y117.124 E.03004
G1 X162.359 Y117.977 E.02985
G1 X161.936 Y119.474 E.05285
G1 X161.592 Y120.523 E.03754
G1 X161.292 Y121.353 E.02998
G1 X160.968 Y122.175 E.03004
G1 X160.622 Y122.988 E.03005
G1 X160.255 Y123.787 E.02985
G1 X159.554 Y125.174 E.05285
G1 X159.016 Y126.139 E.03754
G1 X158.562 Y126.895 E.02997
G1 X158.087 Y127.64 E.03004
G1 X157.591 Y128.372 E.03004
G1 X157.075 Y129.09 E.03004
G1 X156.54 Y129.794 E.03004
G1 X155.986 Y130.483 E.03005
G1 X155.412 Y131.156 E.03005
G1 X154.825 Y131.808 E.02984
G1 X153.741 Y132.923 E.05286
G1 X152.94 Y133.684 E.03754
G1 X152.281 Y134.27 E.02997
G1 X151.605 Y134.84 E.03004
G1 X150.914 Y135.391 E.03004
G1 X150.208 Y135.922 E.03005
G1 X149.487 Y136.434 E.03004
G1 X148.753 Y136.926 E.03004
G1 X148.005 Y137.398 E.03005
G1 X147.249 Y137.846 E.02984
G1 X145.882 Y138.587 E.05286
G1 X144.891 Y139.074 E.03754
G1 X144.087 Y139.437 E.02996
G1 X143.272 Y139.779 E.03004
G1 X142.448 Y140.099 E.03005
G1 X141.621 Y140.394 E.02984
G1 X140.137 Y140.859 E.05286
G1 X139.07 Y141.148 E.03755
G1 X138.212 Y141.351 E.02996
G1 X137.347 Y141.53 E.03005
G1 X136.477 Y141.686 E.03004
G1 X135.609 Y141.817 E.02984
G1 X134.063 Y141.99 E.05286
G1 X132.961 Y142.069 E.03755
G1 X132.08 Y142.103 E.02996
G1 X131.196 Y142.114 E.03004
G1 X130.312 Y142.1 E.03005
G1 X129.435 Y142.063 E.02984
G1 X127.932 Y141.94 E.05126
G1 X128.152 Y142.376 F9000
G1 F1800
G1 X127.843 Y142.351 E.01054
G1 X126.731 Y142.216 E.03806
G1 X125.847 Y142.079 E.03038
G1 X124.966 Y141.918 E.03044
G1 X124.09 Y141.733 E.03043
G1 X123.223 Y141.525 E.03031
G1 X121.71 Y141.099 E.05342
G1 X120.645 Y140.754 E.03806
G1 X119.804 Y140.451 E.03038
G1 X118.97 Y140.124 E.03044
G1 X118.146 Y139.775 E.03043
G1 X117.335 Y139.404 E.0303
G1 X115.931 Y138.696 E.05342
G1 X114.952 Y138.153 E.03806
G1 X114.185 Y137.695 E.03038
G1 X113.429 Y137.215 E.03044
G1 X112.687 Y136.714 E.03043
G1 X111.958 Y136.193 E.03044
G1 X111.245 Y135.652 E.03043
G1 X110.546 Y135.091 E.03043
G1 X109.863 Y134.512 E.03043
G1 X109.2 Y133.917 E.0303
G1 X108.071 Y132.822 E.05342
G1 X107.298 Y132.012 E.03806
G1 X106.703 Y131.346 E.03037
G1 X106.124 Y130.662 E.03044
G1 X105.565 Y129.962 E.03043
G1 X105.025 Y129.248 E.03043
G1 X104.506 Y128.519 E.03043
G1 X104.006 Y127.776 E.03043
G1 X103.527 Y127.019 E.03043
G1 X103.071 Y126.253 E.0303
G1 X102.321 Y124.871 E.05343
G1 X101.824 Y123.868 E.03806
G1 X101.454 Y123.054 E.03037
G1 X101.106 Y122.229 E.03043
G1 X100.781 Y121.395 E.03044
G1 X100.48 Y120.555 E.0303
G1 X100.008 Y119.056 E.05342
G1 X99.713 Y117.976 E.03807
G1 X99.506 Y117.106 E.03037
G1 X99.322 Y116.23 E.03044
G1 X99.163 Y115.349 E.03043
G1 X99.028 Y114.467 E.0303
G1 X98.853 Y112.905 E.05343
G1 X98.769 Y111.788 E.03807
G1 X98.733 Y110.895 E.03037
G1 X98.72 Y110 E.03044
G1 X98.733 Y109.105 E.03044
G1 X98.769 Y108.212 E.03037
G1 X98.853 Y107.095 E.03807
G1 X99.028 Y105.533 E.05343
G1 X99.163 Y104.651 E.0303
G1 X99.322 Y103.77 E.03043
G1 X99.506 Y102.894 E.03044
G1 X99.713 Y102.023 E.03043
G1 X99.945 Y101.158 E.03043
G1 X100.2 Y100.299 E.03044
G1 X100.479 Y99.448 E.03043
G1 X100.78 Y98.607 E.03037
G1 X101.193 Y97.566 E.03806
G1 X101.827 Y96.127 E.05343
G1 X102.218 Y95.326 E.0303
G1 X102.633 Y94.532 E.03044
G1 X103.069 Y93.751 E.03043
G1 X103.527 Y92.981 E.03044
G1 X104.006 Y92.224 E.03043
G1 X104.506 Y91.481 E.03043
G1 X105.025 Y90.752 E.03043
G1 X105.564 Y90.039 E.03038
G1 X106.268 Y89.168 E.03806
G1 X107.302 Y87.984 E.05343
G1 X107.914 Y87.336 E.0303
G1 X108.547 Y86.702 E.03043
G1 X109.197 Y86.086 E.03044
G1 X109.862 Y85.489 E.03038
G1 X110.72 Y84.769 E.03806
G1 X111.961 Y83.805 E.05343
G1 X112.687 Y83.286 E.03031
G1 X113.429 Y82.785 E.03043
G1 X114.185 Y82.305 E.03044
G1 X114.952 Y81.847 E.03038
G1 X115.931 Y81.304 E.03806
G1 X117.335 Y80.596 E.05342
G1 X118.146 Y80.225 E.0303
G1 X118.97 Y79.876 E.03043
G1 X119.804 Y79.549 E.03044
G1 X120.645 Y79.246 E.03038
G1 X121.71 Y78.901 E.03806
G1 X123.223 Y78.475 E.05342
G1 X124.09 Y78.267 E.03031
G1 X124.966 Y78.082 E.03043
G1 X125.847 Y77.921 E.03044
G1 X126.732 Y77.784 E.03043
G1 X127.621 Y77.672 E.03044
G1 X128.512 Y77.584 E.03043
G1 X129.405 Y77.521 E.03044
G1 X130.298 Y77.483 E.03038
G1 X131.418 Y77.47 E.03806
G1 X132.989 Y77.515 E.05342
G1 X133.879 Y77.575 E.03031
G1 X134.77 Y77.66 E.03043
G1 X135.659 Y77.769 E.03044
G1 X136.545 Y77.902 E.03043
G1 X137.426 Y78.06 E.03043
G1 X138.303 Y78.242 E.03044
G1 X139.174 Y78.448 E.03043
G1 X140.038 Y78.678 E.03039
G1 X141.111 Y79 E.03805
G1 X142.597 Y79.511 E.05342
G1 X143.428 Y79.834 E.03031
G1 X144.254 Y80.18 E.03044
G1 X145.07 Y80.549 E.03043
G1 X145.874 Y80.94 E.03039
G1 X146.865 Y81.462 E.03805
G1 X148.225 Y82.248 E.05342
G1 X148.98 Y82.724 E.03031
G1 X149.724 Y83.222 E.03043
G1 X150.454 Y83.741 E.03043
G1 X151.168 Y84.279 E.03039
G1 X152.041 Y84.98 E.03805
G1 X153.226 Y86.012 E.05341
G1 X153.875 Y86.624 E.03031
G1 X154.51 Y87.255 E.03043
G1 X155.127 Y87.904 E.03044
G1 X155.725 Y88.569 E.03039
G1 X156.448 Y89.424 E.03805
G1 X157.413 Y90.665 E.05341
G1 X157.933 Y91.389 E.03031
G1 X158.435 Y92.13 E.03044
G1 X158.917 Y92.885 E.03043
G1 X159.377 Y93.652 E.03039
G1 X159.922 Y94.63 E.03805
G1 X160.631 Y96.032 E.05341
G1 X161.003 Y96.843 E.03031
G1 X161.354 Y97.667 E.03044
G1 X161.682 Y98.5 E.03043
G1 X161.987 Y99.341 E.03039
G1 X162.335 Y100.405 E.03805
G1 X162.762 Y101.917 E.05341
G1 X162.972 Y102.784 E.03031
G1 X163.159 Y103.66 E.03043
G1 X163.321 Y104.541 E.03044
G1 X163.459 Y105.425 E.03043
G1 X163.573 Y106.313 E.03044
G1 X163.662 Y107.204 E.03043
G1 X163.727 Y108.098 E.03043
G1 X163.767 Y108.991 E.03039
G1 X163.778 Y110.348 E.04612
G1 X163.727 Y111.899 E.05275
G1 X163.597 Y113.465 E.05341
G1 X163.459 Y114.576 E.03805
G1 X163.321 Y115.459 E.03039
G1 X163.159 Y116.34 E.03044
G1 X162.972 Y117.216 E.03043
G1 X162.762 Y118.083 E.03031
G1 X162.335 Y119.595 E.05341
G1 X161.987 Y120.659 E.03805
G1 X161.682 Y121.5 E.03039
G1 X161.354 Y122.333 E.03043
G1 X161.003 Y123.157 E.03044
G1 X160.631 Y123.968 E.03031
G1 X159.922 Y125.37 E.05341
G1 X159.377 Y126.348 E.03805
G1 X158.917 Y127.115 E.03039
G1 X158.435 Y127.87 E.03043
G1 X157.933 Y128.611 E.03044
G1 X157.411 Y129.338 E.03043
G1 X156.868 Y130.051 E.03043
G1 X156.307 Y130.749 E.03044
G1 X155.726 Y131.43 E.03044
G1 X155.13 Y132.093 E.03031
G1 X154.034 Y133.22 E.05341
G1 X153.222 Y133.991 E.03805
G1 X152.555 Y134.586 E.03039
G1 X151.87 Y135.163 E.03043
G1 X151.169 Y135.721 E.03043
G1 X150.454 Y136.259 E.03044
G1 X149.724 Y136.778 E.03043
G1 X148.98 Y137.276 E.03043
G1 X148.222 Y137.754 E.03044
G1 X147.455 Y138.208 E.03031
G1 X146.073 Y138.957 E.05342
G1 X145.069 Y139.451 E.03805
G1 X144.254 Y139.82 E.03038
G1 X143.428 Y140.166 E.03044
G1 X142.593 Y140.49 E.03044
G1 X141.753 Y140.789 E.03031
G1 X140.254 Y141.26 E.05342
G1 X139.173 Y141.552 E.03806
G1 X138.303 Y141.758 E.03038
G1 X137.426 Y141.94 E.03044
G1 X136.545 Y142.098 E.03043
G1 X135.663 Y142.231 E.03031
G1 X134.101 Y142.405 E.05342
G1 X132.984 Y142.485 E.03806
G1 X132.091 Y142.52 E.03038
G1 X131.195 Y142.531 E.03043
G1 X130.3 Y142.517 E.03044
G1 X129.409 Y142.479 E.0303
G1 X128.192 Y142.379 E.04152
G1 X128.707 Y142.862 F9000
;TYPE:Outer wall
G1 F1800
G1 X127.798 Y142.787 E.031
G1 X126.671 Y142.65 E.03859
G1 X125.775 Y142.512 E.03083
G1 X124.882 Y142.349 E.03085
G1 X123.994 Y142.161 E.03084
G1 X123.113 Y141.949 E.0308
G1 X121.583 Y141.519 E.054
G1 X120.503 Y141.169 E.03859
G1 X119.65 Y140.861 E.03082
G1 X118.805 Y140.53 E.03085
G1 X117.969 Y140.176 E.03085
G1 X117.145 Y139.8 E.0308
G1 X115.726 Y139.084 E.054
G1 X114.733 Y138.533 E.03859
G1 X113.955 Y138.068 E.03082
G1 X113.189 Y137.582 E.03085
G1 X112.436 Y137.074 E.03084
G1 X111.698 Y136.546 E.03085
G1 X110.975 Y135.998 E.03084
G1 X110.267 Y135.43 E.03084
G1 X109.575 Y134.842 E.03084
G1 X108.901 Y134.237 E.0308
G1 X107.76 Y133.131 E.054
G1 X106.976 Y132.31 E.03859
G1 X106.372 Y131.634 E.03082
G1 X105.786 Y130.94 E.03085
G1 X105.219 Y130.232 E.03085
G1 X104.672 Y129.507 E.03084
G1 X104.145 Y128.768 E.03085
G1 X103.639 Y128.015 E.03084
G1 X103.153 Y127.248 E.03084
G1 X102.69 Y126.47 E.0308
G1 X101.931 Y125.073 E.05401
G1 X101.428 Y124.056 E.03859
G1 X101.053 Y123.23 E.03082
G1 X100.7 Y122.394 E.03084
G1 X100.37 Y121.548 E.03085
G1 X100.065 Y120.695 E.0308
G1 X99.588 Y119.18 E.054
G1 X99.288 Y118.084 E.03859
G1 X99.078 Y117.202 E.03082
G1 X98.892 Y116.314 E.03085
G1 X98.73 Y115.421 E.03084
G1 X98.594 Y114.525 E.0308
G1 X98.416 Y112.946 E.054
G1 X98.332 Y111.814 E.03859
G1 X98.294 Y110.908 E.03082
G1 X98.282 Y110 E.03085
G1 X98.294 Y109.092 E.03085
G1 X98.332 Y108.186 E.03082
G1 X98.416 Y107.054 E.03859
G1 X98.594 Y105.475 E.054
G1 X98.73 Y104.579 E.0308
G1 X98.892 Y103.686 E.03084
G1 X99.078 Y102.798 E.03085
G1 X99.288 Y101.915 E.03084
G1 X99.523 Y101.038 E.03084
G1 X99.782 Y100.168 E.03085
G1 X100.064 Y99.306 E.03084
G1 X100.37 Y98.452 E.03082
G1 X100.788 Y97.397 E.03859
G1 X101.429 Y95.942 E.054
G1 X101.826 Y95.128 E.0308
G1 X102.247 Y94.324 E.03085
G1 X102.689 Y93.531 E.03084
G1 X103.153 Y92.752 E.03085
G1 X103.639 Y91.985 E.03084
G1 X104.145 Y91.232 E.03084
G1 X104.672 Y90.493 E.03085
G1 X105.219 Y89.769 E.03083
G1 X105.932 Y88.886 E.03859
G1 X106.977 Y87.689 E.05401
G1 X107.6 Y87.03 E.0308
G1 X108.241 Y86.388 E.03084
G1 X108.9 Y85.764 E.03085
G1 X109.575 Y85.158 E.03082
G1 X110.444 Y84.428 E.03859
G1 X111.699 Y83.453 E.054
G1 X112.436 Y82.926 E.0308
G1 X113.189 Y82.418 E.03084
G1 X113.955 Y81.932 E.03085
G1 X114.733 Y81.467 E.03082
G1 X115.726 Y80.916 E.03859
G1 X117.145 Y80.2 E.054
G1 X117.969 Y79.824 E.0308
G1 X118.805 Y79.47 E.03085
G1 X119.65 Y79.139 E.03085
G1 X120.503 Y78.831 E.03082
G1 X121.583 Y78.481 E.03859
G1 X123.113 Y78.051 E.054
